X:1
T:1. Lectio brevis
T:1
T:1
T:Jeffrey Quick
T:1. Lectio brevis
T:©2019
T:©2019
T:©2019
T:©2019
T:©2019
T:©2019
T:©2019
T:©2019
T:©2019
T:©2019
T:©2019
T:©2019
T:©2019
T:©2019
T:©2019
T:©2019
C:Jeffrey Quick
Z:©2019
%%score [ 1 2 3 ]
L:1/8
Q:1/4=108
M:none
K:C
V:1 treble-8 nm="Tenor"
V:2 treble-8 nm="Baritone"
V:3 treble-8 nm="Bass"
V:1
 z5 |[M:4/4][Q:1/4=100]!p! A3 A A2 G2 | A4 A2 B2 | c2!<(! c2 (B3 c)!<)! | d4 z2!mf! d2- | %5
w: |So- bri- i es-|to- te et|vi- gi- la- *|te, Qui-|
!>(! d2 c2 B2 A2!>)! | B3!<(! c c2 B2 | c2 ^c2 c3!<)! d |!>(! d8!>)! | z2!mf! d2 (G3 A) | %10
w: * a ad- ver-|sa- ri- us ves-|ter di- a- bo-|lus|tan- quam _|
 _B4 c2 (cB | cd _e4) d2 | d4 (fe)(cd) | c6 z2 | e4!>(! e2 d2 | c3!>)! B A4-!p! | %16
w: le- o ru- *|* * * gi-|ens cir- * cu- *|it|quae- rens quem|de- vo- ret.|
[M:2/4] A z!f! A2 |[M:4/4] c2 B2 c3 d | e2 f2 f2 e2 | d4 c4 | z2"^rit." c2 A2 d2 | %21
w: _ Cu-|i re- si- sti-|te for- tes in|fi- de.|for- tes in|
 (d2 ^c2) !fermata!d4 ||"^I." F2 G2 A2 | d16 |"^flex:" c8 | _e4 d4 d4 | ^c8 || d16 | c4 _B2 d2- | %29
w: fi- * de.||||||||
 d2 c2 c4 | c8 | d8 ||[K:Bb]"^2." F2 G2 B2 | d16 |"^flex:" c8 | e2 dc B2 A2 | G8 || G16 A2 Bc | %38
w: |||||||||
 d8 | d8 |"^3." F2 G2 B2 | d16 |"^flex:" B8 | A4 B2 cd | e6 d2 | d8 || G16 | c4 e4- | e2 d2 A2 B2 | %49
w: |||||||||||
 c8 |][K:C]"^4." A2 G2 A2 | c16 |"^flex:" B8 | c4 d4 | d8 | c8 || d16 | c4 f4- | f2 e2 c2 d2 | %59
w: ||||||||||
 e4 d4 | B8 ||[K:A]"^5." D2 F2 A2 | d16 |"^flex:" c8 | d8- | d4 c4 || c16 | d6 c2 | e6 dc | B8 || %70
w: |||||||||||
[K:F]"^6." A2 B2 c2 | c16 |"^flex:" c8 | d4 c2 d2 | c6 B2 | A8 || e16 | d6 c2 AB c2 | d8 | c8 || %80
w: ||||||||||
[K:G]"^7." (G2 F2) (G2 A2) | d16 |"^flex:" d8 | A4 G2 e2 | e4 d4 | d8 || d16 | d4 e4 B4 | B6 A2 | %89
w: |||||||||
 G8 ||[K:Bb]"^8." F2 G2 B2 | d16 |"^flex:" B8 | A4 e4 | d8 || e16 | e2 d2 d4- | d2 c4 B2 | A8 || %99
w: ||||||||||
[K:C]"^Peregrinus" A2 _B2 | c16 |"^flex:" B8 | c4 d4 | e4 f2 c2 | d4 c4 | d8 || c16 | A4 d4 | %108
w: |||||||||
 d4 ^c4 | d8 ||[Q:1/2=54] z4 | z4!mp! A4 | c6 B2 | d4 d4 | (c3 B A2) G2 | F4 z2 f2 | e2 d2 B2 c2 | %117
w: |||Te|lu- cis|an- te|ter- * * mi-|num, re-|rum Cre- a- tor.|
 A6 A2 | G8 | z2 f2 d2 e2 | c2 c2 g4- | g2 e2 d4 | z2 G4 A2- | A2 B4 (c2- | c2 d4) c2- | c2 A4 B2 | %126
w: po- sci-|mus.|Ut so- li-|ta cle- men-|* ti- a,|sis prae-|* sul ad|_ _ cus-|* to- di-|
 c8 |!mf! z2 e2 c2 d2 | B4 c4 | d4 f4 | e4 z2!p! ^c2 | ^c2 d2 B2 =c2 | A6 A2 | B8 | %134
w: am.|Pro- cul re-|ce- dant|som- ni-|a, et|noc- ti- um phan-|tas- ma-|ta:|
 z2!mf! B2 G2 B2 | c6 c2 | d6 d2 | _e4 z2!f! e2 | d2 d2 c2 c2 | _B2 B2 A2 ^G2 | A2 G2 A2 B2 | %141
w: Hos- tem- que|nos- trum|com- pri-|me, ne|pol- lu- an- tur|cor- por- a. ne|pol- lu- an- tur|
 c4 c4 | B8- |!>(! B8-!>)! | B2 z2!mp! A4 | c6 B2 | d4 d4 | (c3 B A2) G2 | F4 z2 f2 | e2 d2 B2 c2 | %150
w: cor- por-|a.|_|* Prae-|sta, Pa-|ter om-|ni- * * po-|tens, per|Je- sum Christ- um|
 A6 A2 | G8 | z2!mf! f2 d2 e2 | c2 c2 g4- | g2 e2 d4 | z2 f2 e2 d2 | c4 d4 | e6 e2 | d6 z2 | c8 | %160
w: Do- mi-|num,|qui te- cum|in per- pe-|* tu- um|re- gnat cum|San- cto|Spi- ri-|tu.|A-|
 c8 | (c6 G2) | G8 ||[K:F][M:4/4][Q:1/4=80]!p! F4 G4- |!<(! G2 c2 A2 c2 | f3!<)! f!mf! e4 | %166
w: men.|A- *|men.|In ma-|* nus tu- as,|Do- mi- ne,|
 z2 g2 c4 | A2 f3 f e2 | d8 | c8 || z24 | z24 |[M:4/4] z4!mp! (G4- |!<(! G2 F2) c4 | d6 c2!<)! | %175
w: co- men-|do spi- ri- tum|me-|um.|||Re-|* * de-|mi- sti|
 c4!f! f4- | f2!>(! e2 ^c4!>)! | z2!mf! d4 c2 | f4 d4 |!>(! d8!>)! | ^c8 || z24 | %182
w: nos, Do-|* mi- ne,|De- us|ve- ri-|ta-|tis||
[M:3/4]!mf!"^calmly" c3 d e2 | f4 c2 | d2 c3 B | A2 z2 ^c2 | d3 e f2 | d2 (c2 =B2) | c6 || z24 | %190
w: Glo- ri- a|Pa- tri|et Fi- li-|o et|Spi- ri- tu-|i San- *|cto.||
 z24 ||[K:C][M:2/2]!p![Q:1/2=50] d6 c2 | _e4 d4 | c6 A2 | c6 _B2 | c6 A2 | A8 | z2 G2 A2 B2 | %198
w: |Nunc di-|mit- tis|ser- vum|tu- um|Do- mi-|ne,|se- cun- dum|
 c6 B2 | A4 A2 E2 | ^F4 F4 | z2!mp! G2 A2 B2 | c6 B2 | e4 d2 c2 | B4 d4 | z2 e4 d2 | c2 B2 c4 | %207
w: ver- bum|tu- um in|pa- ce|Qui- a vi-|de- runt|o- cu- li|me- i|sa- lu-|ta- re tu-|
 d4 z2!mf! f2- | f2 e2 (d2 c2) | d4 A2 B2 | c6 B2 | B4 (3B2 c2 d2 | e6 e2 |!<(! e8!<)! | e6 z2 | %215
w: um. Quod|_ pa- ra- *|sti an- te|fa- ci-|em om- ni- um|po- pu-|lo-|rum.|
!f![Q:1/4=112]"^più mosso" ^f4 f4- | f2 e2 d2 e2 | ^f2 g2 f2 e2 | ^f3 d d4- | d2 z2 ^f2 f2- | %220
w: Lu- men|_ ad re- ve-|la- ti- o- nem|gen- ti- um,|_ Lu- men|
 f2 e2 ^d2 e2 | ^f2 g2 f2 e2 | ^f3 ^d d4 | z2 _e2 (_a4- | agf_e f3) c | c6 B2- | B2 c2 d2 e2 | %227
w: _ ad re- ve-|la- ti- o- nem|gen- ti- um,|et glo-|* * * * * ri-|am ple-|* bis tu- ae|
 f6 e2 | !fermata!e8 |[Q:1/2=48] z2!p! d3 d c2 | e2 d4 c2 | A2 B2 c4 | z2 c2 c3 B | %233
w: Is- ra-|el.|Glo- ri- a|Pa- tri et|Fi- li- o,|et Spi- ri-|
[M:3/2] A2 c2 (B3 G) G4 |[M:2/2] z2!mp! A4 G2 | A2 G2 A2 B2 | c3 A A4- | A8 | z2!mf! A2 F4 | %239
w: tu- i San- * cto.|Si- cut|e- rat in prin-|ci- pi- o,|_|et nunc|
 z2 e2 c4 | z2 f2 d2 c2 |"^rit."!>(! (_B2 c2) A4!>)! |[M:5/4]!mp!"^a tempo" E2 G2 A2 c2 A2 | %243
w: et nunc|et nunc et|sem- * per,|et in sae- cu- la|
 c2 A2 G2 E2 z2 |!p! E2 G2 A2 c2 A2 |[M:6/4] c2 A2 G4 E4 | z2!pp! E2 G2 A2 c2 A2 |[M:2/2] c4 A4 | %248
w: sae- cu- lo- rum.|et in sae- cu- la|sae- cu- lo- rum.|et in sae- cu- la|sae- cu-|
 G6 A2- | A6 z2 |[M:3/2]!p! d4 d6 z2 | d12 | !fermata!A12 |] %253
w: lo- rum.|_|A- men.|A-|men.|
V:2
 A2 A3 |[M:4/4]!p! F3 E E2 E2 | E4 F2 F2 | G2!<(! A2 (G3 A)!<)! | B4 z2!mf! A2- | %5
w: Fra- tres,|So- bri- i es-|to- te et|vi- gi- la- *|te, Qui-|
!>(! A2 G2 F2 E2!>)! | F3!<(! ^F F2 G2 | A2 _B2 B3 A!<)! | A2!mf! A2 (D3 E) | F4 G2 (GF | %10
w: * a ad- ver-|sa- ri- us ves-|ter di- a- bo-|lus tan- quam _|le- o ru- *|
 GA _B4) A2 | A4 (GF)(DE) | F3 z (AG)(EF) | E6 z2 | A4!>(! B2 E2 | F2!>)! G2!p! A4- | %16
w: * * * gi-|ens cir- * cu- *|it cir- * cu- *|it|quae- rens quem|de- vo- ret.|
[M:2/4] A z!f! F2 |[M:4/4] E2 F2 G2 A2 | B2 c2 B2 B2 | (A2 B2) c4 | z2 E2 F2 (_BA) | %21
w: _ Cu-|i re- si- sti-|te for- tes in|fi- * de.|for- tes in _|
 (GF E2) !fermata!D4 || F2 G2 A2 | A16 | G8 | _B4 A4 G4 | A8 || A16 | G4 F4 | G4 A4 | G8 | F8 || %32
w: fi- * * de.|||||||||||
[K:Bb] F2 G2 F2 | B16 | G8 | c8 | B8 || B16 A4 | F8 | G8 | F2 G2 B2 | B16 | G8 | c4 B4 | A4 G4 | %45
w: |||||||||||||
 B8 || B16 | G4 B4 | A8 | G8 |][K:C] A2 G2 A2 | A16 | G8 | G4 A4 | B8 | A8 || A16 | G4 A4 | B4 A4 | %59
w: ||||||||||||||
 G4 F4 | E8 ||[K:A] D2 F2 A2 | A16 | F8 | B8 | A8 || A16 | B4 G4 | A8 | F8 ||[K:F] F2 G2 A2 | A16 | %72
w: |||||||||||||
 G8 | B4 A4 | G8 | A8 || A16 | F4 G4 A4 | G6 F2 | F8 ||[K:G] (G2 F2) (G2 A2) | A16 | G8 | c4 B4 | %84
w: ||||||||||||
 A8 | B8 || A16 | B4 A4 G4 | F8 | E8 ||[K:Bb] F2 G2 B2 | B16 | G8 | c4 B4 | B8 || B16 | A4 B4 | %97
w: |||||||||||||
 G8 | F8 ||[K:C] A2 _B2 | A16 | G8 | A4 G4 | _B4 A4 | G8 | F8 || G16 | D4 F4 | E8 | D8 ||!mp! E4 | %111
w: |||||||||||||Te|
 G6 F2 | A4 G4 | (F2 G2) (A2 B2) | c4 z2 e2 | d2 c2 A4 | G4 G4- | G4 ^F4 | G2 d2 B2 c2 | A4 ^G4 | %120
w: lu- cis|an- te|ter- * mi- *|num, re-|rum Cre- a-|tor. po-|* sci-|mus. Ut so- li-|ta cle-|
 A4 G4 | E4 z2 A2 | B4 c4 | (F6 E2 | F6) G2 | (A3 G F2) F2 | E8 |!mf! z2 c2 A2 B2 | ^G4 A4 | %129
w: men- ti-|a, sis|prae- sul|ad _|_ cus-|to- * * di-|am.|Pro- cul re-|ce- dant|
 F4 A4 | ^G2!p! E2 ^F2 G2 | A4 G4 | G4 ^F4 | ^F2!mf! F2 D2 F2 | G4 G4 | E2 G2 A4 | _B6 B2 | %137
w: som- ni-|a, et noc- ti-|um phan-|tas- ma-|ta: Hos- tem- que|nos- trum|nos- * trum|com- pri-|
 c4 z2!f! c2 | _B2 A2 A2 G2 | G2 F2 F2 E2 | E2 D2 E2 F2 | G4 ^F4 | ^F8- | F2 z2!mp! E4 | G6 F2 | %145
w: me, ne|pol- lu- an- tur|cor- por- a. ne|pol- lu- an- tur|cor- por-|a.|_ Prae-|sta, Pa-|
 A4 G4 | (F2 G2) (A2 B2) | c4 z2 e2 | d2 c2 A4 | G4 G4- | G4 ^F4 | G2!mf! d2 B2 c2 | A4 ^G4 | %153
w: ter om-|ni- * po- *|tens, per|Je- sum Christ-|um Do-|* mi-|num, qui te- cum|in per-|
 A4 G4 | E4 z2 A2 | F2 A2 ^G4 | A4 A4 | c6 B2 | B6 z2 | (c4 B2 A2 | G2 A2 F4- | F4 E4) | E8 || %163
w: pe- tu-|um re-|gnat _ cum|San- cto|Spi- ri-|tu.|A- * *|||men.|
[K:F][M:4/4]!p! F4!<(! F2 E2 | D2 E4 G2 | A2 =B2!<)!!mf! c4 | z2 c2 B2 A2 | d6 c2 | B4 B3 A | G8 || %170
w: In ma- *|nus tu- as,|Do- mi- ne,|co- men- do|spi- ri-|tum me- *|um.|
 F2 F2 F2 (F2 G2) G2 (G2 F2) G2 (G3 A3) | A2 F2 (G2 A2) G2 (F2 D2) (F2 G2) G3 F3 | %172
w: In ma- nus tu- * as, Do- * mi- ne, _|co- men- do _ spi- ri- * tum _ me- um.|
[M:4/4]!mp! F6 E2 |!<(! B6 A2 | G8 | A8-!<)!!f! | A2!>(! =B2 (A2 G2)!>)! |!mf! (F3 G A2) G2 | %178
w: Re- de-|mi- sti|nos,|Do-|* mi- ne, _|De- * * us|
 A4 G4 |!>(! (F2 A2 G2 F2)!>)! | E8 || A2 F2 (G2 A2) G2 (F2 D2) (F2 G2) G3 F3 | %182
w: ve- ri-|ta- * * *|tis|co- men- do _ spi- ri- * tum _ me- um.|
[M:3/4]!mf! A3 A B2 | B4 A2 | G2 G3 G | F2 z2 A2 | A3 B c2 | A2 G4 | G6 || %189
w: Glo- ri- a|Pa- tri|et Fi- li-|o et|Spi- ri- tu-|i San-|cto.|
 F2 F2 F2 (F2 G2) G2 (G2 F2) G2 (G3 A3) | A2 F2 (G2 A2) G2 (F2 D2) (F2 G2) G3 F3 || %191
w: In ma- nus tu- * as, Do- * mi- ne, _|co- men- do _ spi- ri- * tum _ me- um.|
[K:C][M:2/2]!p! A6 G2 | _B4 A4 | A4 F4 | F4 G4 | E6 E2 | ^F8 | z2 E2 E2 ^F2 | G6 G2 | A4 E2 E2 | %200
w: Nunc di-|mit- tis|ser- vum|tu- um|Do- mi-|ne,|se- cun- dum|ver- bum|tu- um in|
 E4 D4 | z2!mp! E2 E2 ^F2 | (G2 d4) d2 | c4 B2 A2 | G4 B4 | z2 c4 B2 | A2 G2 G4 | A4 z2!mf! d2- | %208
w: pa- ce|Qui- a vi-|de- * runt|o- cu- li|me- i|sa- lu-|ta- re tu-|um. Quod|
 d2 c2 (B2 A2) | A4 E2 F2 | (G2 F4) F2 | G4 (3F2 G2 A2 | B6 B2 |!<(! ^c8!<)! | ^c6 z2 |!f! d4 d4- | %216
w: _ pa- ra- *|sti an- te|fa- * ci-|em om- ni- um|po- pu-|lo-|rum.|Lu- men|
 d2 ^c2 B2 c2 | d2 B2 d2 ^c2 | d3 A A4- | A2 z2 ^d2 d2- | d2 ^c2 B2 c2 | ^d2 e2 d2 ^c2 | ^d3 B B4 | %223
w: _ ad re- ve-|la- ti- o- nem|gen- ti- um,|_ Lu- men|_ ad re- ve-|la- ti- o- nem|gen- ti- um,|
 z2 B2 c2 (d_e) | d4 (_edc)_B | (_A4 G4) | G2 A2 B2 B2 | d6 d2 | !fermata!^c8 | z2!p! A3 A G2 | %230
w: et glo- ri- *|am glo- * * ri-|am _|ple- bis tu- ae|Is- ra-|el.|Glo- ri- a|
 B2 A4 G2 | F2 F2 E4 | z2 E2 F3 F |[M:3/2] F2 F2 G4 E4- |[M:2/2] E8 | z2!mp! E4 D2 | E2 D2 E2 F2 | %237
w: Pa- tri et|Fi- li- o,|et Spi- ri-|tu- i San- cto.|_|Si- cut|e- rat in prin-|
 G3 F D4- | D4 z2!mf! c2 | A4 z2 d2 | _B6 A2 |!>(! (G2 F2) E4!>)! |[M:5/4] z2!mp! E2 G2 A2 c2 | %243
w: ci- pi- o,|_ et|nunc et|nunc et|sem- * per,|et in sae- cu-|
 A2 c2 A2 G2 E2 | z2!p! E2 G2 A2 c2 |[M:6/4] A2 c2 A2 G4 E2- | E2 z2!pp! E2 G2 A2 c2 | %247
w: la sae- cu- lo- rum.|et in sae- cu-|la sae- cu- lo- rum.|_ et in sae- cu-|
[M:2/2] A2 c4 A2- | A2 G6 | G6 z2 |[M:3/2]!p! A4 A6 z2 |!<(! (A2 F2 G2!<)! c2!>(! _B2!>)! G2) | %252
w: la sae- cu-|* lo-|rum.|A- men.|A- * * * * *|
 !fermata!^F12 |] %253
w: men.|
V:3
 z5 |[M:4/4]!p! D3 A, A,2 B,2 | C4 D2 D2 | E2!<(! ^F2 (G2 D2)!<)! | G4 z2!mf! F2- | %5
w: |So- bri- i es-|to- te et|vi- gi- la- *|te, Qui-|
!>(! F2 E2 D2 C2!>)! |!<(! D3 ^D D2 E2 | E2 E2 F3 F!<)! | F4 z2!mf! F2 | (_B,3 C) B,4 | %10
w: * a ad- ver-|sa- ri- us ves-|ter di- a- bo-|lus tan-|quam _ le-|
 _E2 (ED E2 FG | A4) _B4 | A4- A3 z | A,4 A,2 B,2 | C3 D E4 | z8 |[M:2/4] z2!f! D2 | %17
w: o ru- * * * *|* gi-|ens _|quae- rens quem|de- vo- ret.||Cu-|
[M:4/4] A,2 D2 C2 F2 | E2 A2 G2 G2 | (F2 G2) E4 | z2 A,2 D2 G,2 | A,4"^8/11/19\n:50" !fermata!A4 || %22
w: i re- si- sti-|te for- tes in|fi- * de.|for- tes in|fi- de.|
 F2 E2 F2 | F16 | F8 | (3C2 D2 _E2 F4 _B,4 | A,8 || F16 | E2 DC D2 _B,2- | B,2 CD E2 F2- | %30
w: ||||||||
 F2 ED E4 | D8 ||[K:Bb] F2 E2 D2 | G16 | E8 | C2 DE F4 | G8 || E16 C4 | B,4 D2 A2 | B8 | F2 G2 G2 | %41
w: |||||||||||
 F16 | F8 | F4 G2 ED | C8 | B,8 || E16 | E4 C4 | D8 | E8 |][K:C] A2 G2 A2 | E16 | E8 | E4 D4 | %54
w: |||||||||||||
 G2 F2 E2 D2 | F8 || D16 | E4 D4 | G4 A4 | B4 A4 | G8 ||[K:A] D2 F2 A2 | F16 | A8 | A4 G4 | E8 || %66
w: ||||||||||||
 F16 | B,4 E4 | C8 | D8 ||[K:F] F2 F2 F2 | F16 | E8 | B,CDE F4- | F2 ED E4 | F8 || C16 | D4 E4 F4 | %78
w: ||||||||||||
 B,8 | F8 ||[K:G] (G2 F2) (G2 A2) | F16 | E8 | E6 G2 | G2 FE F4 | G8 || F16 | B,4 C4 E4 | E4 ^D4 | %89
w: |||||||||||
 E8 ||[K:Bb] F2 G2 G2 | F16 | F8 | F4 G4 | G8 || G16 | F4 G2 F2- | F2 =ED E4 | F8 ||[K:C] z4 | %100
w: |||||||||||
 A,16 | E8 | A,4 B,4 | C4 D2 F2- | F2 ED E4 | D8 || E16 | F4 D4 | A,8 | A8 || z4 |!mp! B,4 D4- | %112
w: |||||||||||Te lu-|
 D2 C2 E4 | D4 F2 G2 | A4 z2 c2 | A2 A2 F4 | C4 (E2 C2 | D6) C2 | B,4 z2 E2 | C2 D2 B,4 | %120
w: * cis an-|te ter- mi-|num, re-|rum Cre- a-|tor. po- *|* sci-|mus. Ut|so- li- ta|
 (A,4 B,4) | C4 F4 | E8 | z2 F2 G4 | A4 D2 E2 | (F3 E D2) D2 | C8 | z8 | z2!mf! E2 C2 E2 | %129
w: cle- *|men- ti-|a,|sis prae-|sul ad cus-|to- * * di-|am.||Pro- cul re-|
 A2 G2 F2 D2 | E2!p! E2 E2 E2 | F6 E2 | D6 C2 | B,8- | B,2 z2 z2!mf! E2 | C2 E2 F4 | F4 _A2 G2 | %137
w: ce- dant som- ni-|a, et noc- ti-|um phan-|tas- ma-|ta:|_ Hos-|tem- que nos-|trum com- pri-|
 C4 z2!f! G2 | G2 F2 F2 _E2 | _E2 D2 D2 D2 | C2 B,2 C2 D2 | E4 E4 | ^D8- | D2 z2 z4 |!mp! B,4 D4 | %145
w: me, ne|pol- lu- an- tur|cor- por- a. ne|pol- lu- an- tur|cor- por-|a.|_|Prae- sta,|
 C4 E4 | D4 F2 G2 | A4 z2 c2 | A2 A2 F4 | C4 (E2 C2 | D6) C2 | B,4 z2!mf! E2 | C2 D2 B,4 | %153
w: Pa- ter|om- ni- po-|tens, per|Je- sum Christ-|um Do- *|* mi-|num, qui|te- cum in|
 (A,4 B,4) | C4 F4 | D4 E4 | F4 ^F4 | G6 G2 | G6 z2 | z2 (E4 F2) | C4 (A,2 B,2) | C8- | C8 || %163
w: per- *|pe- tu-|um re-|gnat cum|Spi- ri-|tu.|A- *|men. A- *|men.|_|
[K:F][M:4/4] z4!p! C4 |!<(! B,2 A,2 C2 E2- | E2 D2!<)!!mf! C3 D | E4 z2 F2 | F4 B4 | B2 A2 G2 D2 | %169
w: In|ma- nus tu- *|* as, Do- mi-|ne, co-|men- do|spi- ri- tum me-|
 E8 || z24 | z24 |[M:4/4] z8 | z8 |!mp! B,2!<(! C2 D2 E2!<)! | F4!f! (c4 | d2)!>(! G2 A4!>)! | %177
w: um.|||||Re- de- mi- sti|nos, Do-|* mi- ne,|
!mf! (A3 G F2) E2 | (D2 C2) B,4 |!>(! A,8!>)! | A8 || z24 |[M:3/4]!mf! F3 F G2 | D4 F2 | %184
w: De- * * us|ve- * ri-|ta-|tis||Glo- ri- a|Pa- tri|
 B,2 F2 E2 | F2 z2 E2 | F3 G A2 | F2 F4 | E6 || z24 | z24 ||[K:C][M:2/2]!p! D4 F4 | F6 E2 | D4 D4 | %194
w: et Fi- li-|o et|Spi- ri- tu-|i San-|cto.|||Nunc di-|mit- tis|ser- vum|
 _B,4 B,4 | A,6 A,2 | D8- | D8 | F6 F2 | E2 D4 C2 | B,4 B,4 | z2!mp! D2 D2 D2 | E4 G4 | F4 F2 F2 | %204
w: tu- um|Do- mi-|ne,|_|ver- bum|tu- um in|pa- ce|Qui- a vi-|de- runt|o- cu- li|
 G4 ^F4 | z2 =F4 F2 | F2 F2 E4 | D8 |!mf! G2 G2 G4 | F4 D2 D2 | A,4 D4 | E4 (3D2 D2 D2 | %212
w: me- i|sa- lu-|ta- re tu-|um.|Quod pa- ra-|sti an- te|fa- ci-|em om- ni- um|
 (C4 c2) G2 |!<(! A8!<)! | A6 z2 |!f! A4 A4- | A8- | A8 | G3 G ^F4- | F2 z2 B2 B2- | B8- | B8 | %222
w: po- * pu-|lo-|rum.|Lu- men|_||gen- ti- um,|_ Lu- men|_||
 A3 A A4 | z2 A2 _A2 (_Bc) | _B4 (cB_AG | F2) _E2 D4 | E2 E2 G2 G2 | A6 A2 | !fermata!A8 | %229
w: gen- ti- um,|et glo- ri- *|am glo- * * *|* ri- am|ple- bis tu- ae|Is- ra-|el.|
!p! D4 F2 F2 | F4 E4 | D2 CB, A,4 | z2 A,2 D3 D |[M:3/2] D2 D2 E4 C4- |[M:2/2] C8- | C6 z2 | %236
w: Glo- ri- a|Pa- tri|et Fi- li- o,|et Spi- ri-|tu- i San- cto.|_||
 z2!mp! D4 C2 | D2 C2 D2 E2 | F3 D D4- | D4!mf! F4 | D6 F2 |!>(! (D2 A,2) A,4!>)! | %242
w: Si- cut|e- rat in prin-|ci- pi- o,|_ et|nunc et|sem- * per,|
[M:5/4] z2 z2!mp! E2 G2 A2 | c2 A2 c2 A2 G2 | E2 z2!p! E2 G2 A2 |[M:6/4] c2 A2 c2 A2 G4 | %246
w: et in sae-|cu- la sae- cu- lo-|rum. et in sae-|cu- la sae- cu- lo-|
 E4 z2!pp! E2 G2 A2 |[M:2/2] c2 A2 c4 | A4 G4- | G2 E4 z2 |[M:3/2]!p! D4 D6 z2 | %251
w: rum. et in sae-|cu- la sae-|cu- lo-|* rum.|A- men.|
!<(! (_B,2 A,2 B,2!<)! C2!>(! D2 C2)!>)! | !fermata!D12 |] %253
w: A- * * * * *|men.|

